X: 21748
T: King Of The Fairies
R: hornpipe
M: 4/4
K: Edorian
|:B,2|EDEF GFGA|B2B2 G2GA|B2E2 EFGE|FGFE D2B,2|
EDEF GFGA|BAGB d3c|B2E2 GFE_E|E6:|
|:d2|e2e2 Bdef|gagf e3f|e2B2 BABc|dedc BcdB|
e2B2 Bdef|gagf efed|Bdeg fedf|e6 ef|
g3e f3d|edBc d3e|dBAF GABc|dBAF GFED|
B,2E2 EFGA|B2e2 edef|e2B2 BAGF|E6:|

